X:0
T:Mrs McDonalds Reel
S:M. Murray's MS for piano, 1817 (in my possession)
M:C|
L:1/8
Q:1/2=104
K:EDor
F|E2EF  BEEF|E2EF dFDF|E2EF EFGA|B/c/d AG FDD:|
F|Eee^d eEEF|Eeec dDDF|Eeed Bcdc|Bbfe     dDD:|

This tune by Niel Gow is the full monty, alternating between D major and
C major:

